build/img/sprite_auto.svg

<svg xmlns="http://www.w3.org/2000/svg" xmlns:xlink="http://www.w3.org/1999/xlink"><defs><linearGradient id="paint0_linear" x1="4.211" y1=".457" x2="13.147" y2="3.433" gradientUnits="userSpaceOnUse"><stop stop-color="#FFC341"/><stop offset=".964" stop-color="#FFD701"/></linearGradient><linearGradient id="paint0_linear" x1="16.842" y1="1.829" x2="52.588" y2="13.732" gradientUnits="userSpaceOnUse"><stop stop-color="#FFC341"/><stop offset=".964" stop-color="#FFD701"/></linearGradient><linearGradient id="paint1_linear" x1="30.632" y1="8.029" x2="55.51" y2="19.074" gradientUnits="userSpaceOnUse"><stop stop-color="#FFC341"/><stop offset=".964" stop-color="#FFD701"/></linearGradient></defs><symbol id="icon-box"><rect x="1" y="1" width="14" height="14" rx="1" stroke="url(#paint0_linear)" stroke-width="2"/></symbol><symbol id="icon-down" viewBox="0 0 17 11">
<path fill="transparent" d="M1 1L8.5 9L16 1" stroke="#1FC0FC" stroke-width="2"/>
</symbol><symbol id="icon-fb" viewBox="0 0 24 24"><path d="M15.538 5.187H17.4V1.943c-.321-.044-1.426-.143-2.713-.143-2.685 0-4.524 1.689-4.524 4.793V9.45H7.2v3.626h2.963V22.2h3.633v-9.123h2.843l.45-3.626h-3.294V6.953c0-1.049.283-1.766 1.743-1.766z"/></symbol><symbol id="icon-instagram" viewBox="0 0 24 24">
<path d="M12 8.3999C10.0149 8.3999 8.40002 10.0148 8.40002 11.9999C8.40002 13.985 10.0149 15.5999 12 15.5999C13.9852 15.5999 15.6 13.985 15.6 11.9999C15.6 10.0148 13.9852 8.3999 12 8.3999Z"/>
<path fill-rule="evenodd" clip-rule="evenodd" d="M2.40002 17.6106V6.3892C2.40002 4.18596 4.18608 2.3999 6.38932 2.3999H17.6107C19.814 2.3999 21.6 4.18596 21.6 6.3892V17.6106C21.6 19.8138 19.814 21.5999 17.6107 21.5999H6.38932C4.18608 21.5999 2.40002 19.8138 2.40002 17.6106ZM6.55995 9.96611C4.926 14.7018 9.29815 19.0739 14.0338 17.44C15.63 16.8894 16.8896 15.6299 17.4401 14.0338C19.074 9.29803 14.7019 4.92588 9.96612 6.55982C8.37002 7.11037 7.11049 8.37002 6.55995 9.96611ZM18 6.59993C18.6628 6.59993 19.2 6.06268 19.2 5.39993C19.2 4.73719 18.6628 4.19993 18 4.19993C17.3373 4.19993 16.8 4.73719 16.8 5.39993C16.8 6.06268 17.3373 6.59993 18 6.59993Z"/>
</symbol><symbol id="icon-ok"><rect x="3" y="3" width="58" height="58" rx="29" stroke="url(#paint0_linear)" stroke-width="6"/><path d="M18 27.88L32.197 43 66 7" stroke="url(#paint1_linear)" stroke-width="9" stroke-linecap="round" stroke-linejoin="round"/></symbol><symbol id="icon-telegram"><path d="M9.633 14.863l-.364 5.026c.52 0 .746-.22 1.016-.483l2.441-2.291 5.059 3.637c.927.508 1.581.24 1.831-.838l3.32-15.275h.001c.295-1.347-.495-1.874-1.4-1.543L2.022 10.432c-1.332.507-1.311 1.236-.226 1.566l4.99 1.524 11.59-7.12c.545-.354 1.04-.158.633.197l-9.375 8.264z" fill="#000"/></symbol><symbol id="icon-twitter" viewBox="0 0 24 24"><path d="M23.077 5.13a9.47 9.47 0 01-2.617.718 4.516 4.516 0 001.998-2.51 9.076 9.076 0 01-2.88 1.1 4.54 4.54 0 00-7.856 3.106c0 .359.03.705.105 1.035C8.05 8.394 4.71 6.585 2.466 3.828a4.573 4.573 0 00-.622 2.296c0 1.573.81 2.967 2.017 3.774a4.485 4.485 0 01-2.052-.56v.05a4.563 4.563 0 003.639 4.463c-.37.101-.773.15-1.19.15-.291 0-.585-.017-.86-.078.588 1.799 2.258 3.121 4.243 3.164a9.125 9.125 0 01-5.63 1.937c-.373 0-.73-.017-1.088-.062A12.787 12.787 0 007.89 21c8.358 0 12.927-6.923 12.927-12.924 0-.2-.007-.395-.017-.587a9.061 9.061 0 002.277-2.358z"/></symbol><symbol id="icon-up" viewBox="0 0 17 11">
<path fill="transparent" d="M16 10L8.5 2L0.999998 10" stroke="#1FC0FC" stroke-width="2"/>
</symbol><symbol id="icon-whatsapp"><path d="M12.002 2h-.005C6.485 2 2 6.485 2 12c0 2.188.705 4.215 1.904 5.861l-1.246 3.715L6.5 20.347A9.913 9.913 0 0012.002 22C17.517 22 22 17.514 22 12S17.516 2 12.002 2zm5.82 14.121c-.242.681-1.2 1.247-1.963 1.412-.523.11-1.205.2-3.503-.753-2.938-1.218-4.831-4.204-4.978-4.398-.142-.193-1.188-1.58-1.188-3.016 0-1.435.729-2.133 1.022-2.433.242-.247.64-.36 1.023-.36.124 0 .235.007.335.012.294.013.441.03.635.494.241.581.829 2.016.899 2.163.071.148.142.348.042.542-.094.2-.176.288-.324.458-.147.17-.287.3-.434.483-.136.159-.288.329-.118.623.17.287.758 1.246 1.623 2.016 1.116.993 2.02 1.311 2.345 1.446.24.1.528.076.705-.111.223-.242.5-.642.78-1.035.2-.283.453-.318.718-.218.27.094 1.699.8 1.993.947.293.147.487.217.558.34.07.124.07.706-.17 1.388z" fill="#000"/></symbol></svg>

<svg xmlns="http://www.w3.org/2000/svg" xmlns:xlink="http://www.w3.org/1999/xlink"><defs><linearGradient id="paint0_linear" x1="4.211" y1=".457" x2="13.147" y2="3.433" gradientUnits="userSpaceOnUse"><stop stop-color="#FFC341"/><stop offset=".964" stop-color="#FFD701"/></linearGradient><linearGradient id="paint0_linear" x1="16.842" y1="1.829" x2="52.588" y2="13.732" gradientUnits="userSpaceOnUse"><stop stop-color="#FFC341"/><stop offset=".964" stop-color="#FFD701"/></linearGradient><linearGradient id="paint1_linear" x1="30.632" y1="8.029" x2="55.51" y2="19.074" gradientUnits="userSpaceOnUse"><stop stop-color="#FFC341"/><stop offset=".964" stop-color="#FFD701"/></linearGradient></defs><symbol id="icon-box"><rect x="1" y="1" width="14" height="14" rx="1" stroke="url(#paint0_linear)" stroke-width="2"/></symbol><symbol id="icon-down"><path fill="transparent" d="M1 1l7.5 8L16 1" stroke="#1FC0FC" stroke-width="2"/></symbol><symbol id="icon-fb"><path d="M15.538 5.187H17.4V1.943c-.321-.044-1.426-.143-2.713-.143-2.685 0-4.524 1.689-4.524 4.793V9.45H7.2v3.626h2.963V22.2h3.633v-9.123h2.843l.45-3.626h-3.294V6.953c0-1.049.283-1.766 1.743-1.766z"/></symbol><symbol id="icon-instagram"><path d="M12 8.4A3.604 3.604 0 008.4 12c0 1.985 1.615 3.6 3.6 3.6s3.6-1.615 3.6-3.6-1.615-3.6-3.6-3.6z"/><path fill-rule="evenodd" clip-rule="evenodd" d="M2.4 17.61V6.39A3.99 3.99 0 016.39 2.4h11.22a3.99 3.99 0 013.99 3.99v11.22a3.99 3.99 0 01-3.99 3.99H6.39a3.99 3.99 0 01-3.99-3.99zm4.16-7.644a5.823 5.823 0 007.474 7.474 5.508 5.508 0 003.406-3.406A5.823 5.823 0 009.966 6.56 5.508 5.508 0 006.56 9.966zM18 6.6a1.2 1.2 0 100-2.4 1.2 1.2 0 000 2.4z"/></symbol><symbol id="icon-ok"><rect x="3" y="3" width="58" height="58" rx="29" stroke="url(#paint0_linear)" stroke-width="6"/><path d="M18 27.88L32.197 43 66 7" stroke="url(#paint1_linear)" stroke-width="9" stroke-linecap="round" stroke-linejoin="round"/></symbol><symbol id="icon-telegram"><path d="M9.633 14.863l-.364 5.026c.52 0 .746-.22 1.016-.483l2.441-2.291 5.059 3.637c.927.508 1.581.24 1.831-.838l3.32-15.275h.001c.295-1.347-.495-1.874-1.4-1.543L2.022 10.432c-1.332.507-1.311 1.236-.226 1.566l4.99 1.524 11.59-7.12c.545-.354 1.04-.158.633.197l-9.375 8.264z" fill="#000"/></symbol><symbol id="icon-twitter"><path d="M23.077 5.13a9.47 9.47 0 01-2.617.718 4.516 4.516 0 001.998-2.51 9.076 9.076 0 01-2.88 1.1 4.54 4.54 0 00-7.856 3.106c0 .359.03.705.105 1.035C8.05 8.394 4.71 6.585 2.466 3.828a4.573 4.573 0 00-.622 2.296c0 1.573.81 2.967 2.017 3.774a4.485 4.485 0 01-2.052-.56v.05a4.563 4.563 0 003.639 4.463c-.37.101-.773.15-1.19.15-.291 0-.585-.017-.86-.078.588 1.799 2.258 3.121 4.243 3.164a9.125 9.125 0 01-5.63 1.937c-.373 0-.73-.017-1.088-.062A12.787 12.787 0 007.89 21c8.358 0 12.927-6.923 12.927-12.924 0-.2-.007-.395-.017-.587a9.061 9.061 0 002.277-2.358z"/></symbol><symbol id="icon-up"><path fill="transparent" d="M16 10L8.5 2 1 10" stroke="#1FC0FC" stroke-width="2"/></symbol><symbol id="icon-whatsapp"><path d="M12.002 2h-.005C6.485 2 2 6.485 2 12c0 2.188.705 4.215 1.904 5.861l-1.246 3.715L6.5 20.347A9.913 9.913 0 0012.002 22C17.517 22 22 17.514 22 12S17.516 2 12.002 2zm5.82 14.121c-.242.681-1.2 1.247-1.963 1.412-.523.11-1.205.2-3.503-.753-2.938-1.218-4.831-4.204-4.978-4.398-.142-.193-1.188-1.58-1.188-3.016 0-1.435.729-2.133 1.022-2.433.242-.247.64-.36 1.023-.36.124 0 .235.007.335.012.294.013.441.03.635.494.241.581.829 2.016.899 2.163.071.148.142.348.042.542-.094.2-.176.288-.324.458-.147.17-.287.3-.434.483-.136.159-.288.329-.118.623.17.287.758 1.246 1.623 2.016 1.116.993 2.02 1.311 2.345 1.446.24.1.528.076.705-.111.223-.242.5-.642.78-1.035.2-.283.453-.318.718-.218.27.094 1.699.8 1.993.947.293.147.487.217.558.34.07.124.07.706-.17 1.388z" fill="#000"/></symbol></svg>
